; generated by Slic3r 1.2.9 on 2018-04-13 at 12:17:36

; external perimeters extrusion width = 0.35mm
; perimeters extrusion width = 0.52mm
; infill extrusion width = 0.52mm
; solid infill extrusion width = 0.52mm
; top infill extrusion width = 0.52mm

G28 ; home all axes
G92 E0
G1 X30 Y30 F3000
G1 Z5 F2000 ; lift nozzle
G1 F3000 X220
G1 F2000 Z0
G1 F200 E10
G1 F1000 E9
G1 F3000 X190 Y50
G92 E-1
G1 F2000 Z2
G21 ; set units to millimeters
G90 ; use absolute coordinates
M82 ; use absolute distances for extrusion
G92 E0 ; reset extrusion distance
G1 Z0.250 F7800.000 ; move to next layer (0)
G1 E-2.00000 F2400.00000 ; retract
G92 E0 ; reset extrusion distance
G1 X84.839 Y107.382 F7800.000 ; move to first skirt point
G1 E2.00000 F2400.00000 ; unretract
G1 X88.000 Y106.554 E2.13646 F1800.000 ; skirt
G1 X112.000 Y106.554 E3.13854 ; skirt
G1 X114.227 Y106.951 E3.23299 ; skirt
G1 X116.180 Y108.092 E3.32744 F1800.000 ; skirt
G1 X117.618 Y109.839 E3.42189 ; skirt
G1 X118.446 Y113.000 E3.55835 ; skirt
G1 X118.446 Y137.000 E4.56043 ; skirt
G1 X118.049 Y139.227 E4.65488 ; skirt
G1 X116.908 Y141.180 E4.74933 ; skirt
G1 X115.161 Y142.618 E4.84378 ; skirt
G1 X112.000 Y143.446 E4.98024 ; skirt
G1 X88.000 Y143.446 E5.98233 ; skirt
G1 X85.773 Y143.049 E6.07678 ; skirt
G1 X83.820 Y141.908 E6.17123 ; skirt
G1 X82.382 Y140.161 E6.26568 ; skirt
G1 X81.554 Y137.000 E6.40214 ; skirt
G1 X81.554 Y113.000 E7.40422 ; skirt
G1 X81.951 Y110.773 E7.49867 ; skirt
G1 X83.092 Y108.820 E7.59312 ; skirt
G1 X84.798 Y107.416 E7.68538 ; skirt
G1 E5.68538 F2400.00000 ; retract
G92 E0 ; reset extrusion distance
G1 X110.857 Y135.857 F7800.000 ; move to first perimeter point
G1 E2.00000 F2400.00000 ; unretract
G1 X89.143 Y135.857 E2.90666 F1800.000 ; perimeter
G1 X89.143 Y114.143 E3.81332 ; perimeter
G1 X110.857 Y114.143 E4.71998 ; perimeter
G1 X110.857 Y135.805 E5.62445 ; perimeter
G1 X111.304 Y136.304 F7800.000 ; move to first perimeter point
G1 X88.696 Y136.304 E6.56838 F1800.000 ; perimeter
G1 X88.696 Y113.696 E7.51232 ; perimeter
G1 X111.304 Y113.696 E8.45625 ; perimeter
G1 X111.304 Y136.251 E9.39799 ; perimeter
G1 X111.750 Y136.750 F7800.000 ; move to first perimeter point
G1 X88.250 Y136.750 E10.37920 F1800.000 ; perimeter
G1 X88.250 Y113.250 E11.36041 ; perimeter
G1 X111.750 Y113.250 E12.34161 ; perimeter
G1 X111.750 Y136.698 E13.32063 ; perimeter
G1 X111.447 Y136.575 F7800.000 ; move inwards before travel
G1 X110.612 Y114.522 F7800.000 ; move to first infill point
G1 X89.388 Y114.522 E14.22508 F1800.000 ; infill
G1 X89.388 Y114.978 E14.24450 ; infill
G1 X110.612 Y114.978 E15.14895 ; infill
G1 X110.612 Y115.433 E15.16837 ; infill
G1 X89.388 Y115.433 E16.07282 ; infill
G1 X89.388 Y115.889 E16.09224 ; infill
G1 X110.612 Y115.889 E16.99669 ; infill
G1 X110.612 Y116.344 E17.01611 ; infill
G1 X89.388 Y116.344 E17.92056 ; infill
G1 X89.388 Y116.800 E17.93998 ; infill
G1 X110.612 Y116.800 E18.84443 ; infill
G1 X110.612 Y117.255 E18.86384 ; infill
G1 X89.388 Y117.255 E19.76830 ; infill
G1 X89.388 Y117.711 E19.78771 ; infill
G1 X110.612 Y117.711 E20.69217 ; infill
G1 X110.612 Y118.167 E20.71158 ; infill
G1 X89.388 Y118.167 E21.61604 ; infill
G1 X89.388 Y118.622 E21.63545 ; infill
G1 X110.612 Y118.622 E22.53991 ; infill
G1 X110.612 Y119.078 E22.55932 ; infill
G1 X89.388 Y119.078 E23.46378 ; infill
G1 X89.388 Y119.533 E23.48319 ; infill
G1 X110.612 Y119.533 E24.38765 ; infill
G1 X110.612 Y119.989 E24.40706 ; infill
G1 X89.388 Y119.989 E25.31152 ; infill
G1 X89.388 Y120.444 E25.33093 ; infill
G1 X110.612 Y120.444 E26.23539 ; infill
G1 X110.612 Y120.900 E26.25480 ; infill
G1 X89.388 Y120.900 E27.15926 ; infill
G1 X89.388 Y121.356 E27.17867 ; infill
G1 X110.612 Y121.356 E28.08313 ; infill
G1 X110.612 Y121.811 E28.10254 ; infill
G1 X89.388 Y121.811 E29.00699 ; infill
G1 X89.388 Y122.267 E29.02641 ; infill
G1 X110.612 Y122.267 E29.93086 ; infill
G1 X110.612 Y122.722 E29.95028 ; infill
G1 X89.388 Y122.722 E30.85473 ; infill
G1 X89.388 Y123.178 E30.87415 ; infill
G1 X110.612 Y123.178 E31.77860 ; infill
G1 X110.612 Y123.633 E31.79802 ; infill
G1 X89.388 Y123.633 E32.70247 ; infill
G1 X89.388 Y124.089 E32.72189 ; infill
G1 X110.612 Y124.089 E33.62634 ; infill
G1 X110.612 Y124.544 E33.64576 ; infill
G1 X89.388 Y124.544 E34.55021 ; infill
G1 X89.388 Y125.000 E34.56963 ; infill
G1 X110.612 Y125.000 E35.47408 ; infill
G1 X110.612 Y125.456 E35.49349 ; infill
G1 X89.388 Y125.456 E36.39795 ; infill
G1 X89.388 Y125.911 E36.41736 ; infill
G1 X110.612 Y125.911 E37.32182 ; infill
G1 X110.612 Y126.367 E37.34123 ; infill
G1 X89.388 Y126.367 E38.24569 ; infill
G1 X89.388 Y126.822 E38.26510 ; infill
G1 X110.612 Y126.822 E39.16956 ; infill
G1 X110.612 Y127.278 E39.18897 ; infill
G1 X89.388 Y127.278 E40.09343 ; infill
G1 X89.388 Y127.733 E40.11284 ; infill
G1 X110.612 Y127.733 E41.01730 ; infill
G1 X110.612 Y128.189 E41.03671 ; infill
G1 X89.388 Y128.189 E41.94117 ; infill
G1 X89.388 Y128.645 E41.96058 ; infill
G1 X110.612 Y128.645 E42.86504 ; infill
G1 X110.612 Y129.100 E42.88445 ; infill
G1 X89.388 Y129.100 E43.78891 ; infill
G1 X89.388 Y129.556 E43.80832 ; infill
G1 X110.612 Y129.556 E44.71278 ; infill
G1 X110.612 Y130.011 E44.73219 ; infill
G1 X89.388 Y130.011 E45.63664 ; infill
G1 X89.388 Y130.467 E45.65606 ; infill
G1 X110.612 Y130.467 E46.56051 ; infill
G1 X110.612 Y130.922 E46.57993 ; infill
G1 X89.388 Y130.922 E47.48438 ; infill
G1 X89.388 Y131.378 E47.50380 ; infill
G1 X110.612 Y131.378 E48.40825 ; infill
G1 X110.612 Y131.833 E48.42767 ; infill
G1 X89.388 Y131.833 E49.33212 ; infill
G1 X89.388 Y132.289 E49.35154 ; infill
G1 X110.612 Y132.289 E50.25599 ; infill
G1 X110.612 Y132.745 E50.27541 ; infill
G1 X89.388 Y132.745 E51.17986 ; infill
G1 X89.388 Y133.200 E51.19928 ; infill
G1 X110.612 Y133.200 E52.10373 ; infill
G1 X110.612 Y133.656 E52.12314 ; infill
G1 X89.388 Y133.656 E53.02760 ; infill
G1 X89.388 Y134.111 E53.04701 ; infill
G1 X110.612 Y134.111 E53.95147 ; infill
G1 X110.612 Y134.567 E53.97088 ; infill
G1 X89.388 Y134.567 E54.87534 ; infill
G1 X89.388 Y135.022 E54.89475 ; infill
G1 X110.612 Y135.022 E55.79921 ; infill
G1 X110.612 Y135.478 E55.81862 ; infill
G1 X89.388 Y135.478 E56.72308 ; infill
M106 S255 ; enable fan
G1 Z0.450 F7800.000 ; move to next layer (1)
G1 X110.950 Y135.950 F7800.000 ; move to first perimeter point
G1 X89.050 Y135.950 E57.51147 F3000.000 ; perimeter
G1 X89.050 Y114.050 E58.29986 ; perimeter
G1 X110.950 Y114.050 E59.08826 ; perimeter
G1 X110.950 Y135.897 E59.87476 ; perimeter
G1 X111.431 Y136.431 F7800.000 ; move to first perimeter point
G1 X88.569 Y136.431 E60.69779 F3000.000 ; perimeter
G1 X88.569 Y113.569 E61.52082 ; perimeter
G1 X111.431 Y113.569 E62.34385 ; perimeter
G1 X111.431 Y136.378 E63.16499 ; perimeter
G1 X111.825 Y136.825 F7800.000 ; move to first perimeter point
G1 X88.175 Y136.825 E63.70848 F1500.000 ; perimeter
G1 X88.175 Y113.175 E64.25196 ; perimeter
G1 X111.825 Y113.175 E64.79545 ; perimeter
G1 X111.825 Y136.773 E65.33773 ; perimeter
G1 X111.522 Y136.650 F7800.000 ; move inwards before travel
G1 X110.541 Y135.685 F7800.000 ; move to first infill point
G1 X89.388 Y114.522 E14.22508 F1200.000 ; infill
G1 X89.388 Y114.978 E14.24450 ; infill
G1 X110.612 Y114.978 E15.14895 ; infill
G1 X110.612 Y115.433 E15.16837 ; infill
G1 X89.388 Y115.433 E16.07282 ; infill
G1 X89.388 Y115.889 E16.09224 ; infill
G1 X110.612 Y115.889 E16.99669 ; infill
G1 X110.612 Y116.344 E17.01611 ; infill
G1 X89.388 Y116.344 E17.92056 ; infill
G1 X89.388 Y116.800 E17.93998 ; infill
G1 X110.612 Y116.800 E18.84443 ; infill
G1 X110.612 Y117.255 E18.86384 ; infill
G1 X89.388 Y117.255 E19.76830 ; infill
G1 X89.388 Y117.711 E19.78771 ; infill
G1 X110.612 Y117.711 E20.69217 ; infill
G1 X110.612 Y118.167 E20.71158 ; infill
G1 X89.388 Y118.167 E21.61604 ; infill
G1 X89.388 Y118.622 E21.63545 ; infill
G1 X110.612 Y118.622 E22.53991 ; infill
G1 X110.612 Y119.078 E22.55932 ; infill
G1 X89.388 Y119.078 E23.46378 ; infill
G1 X89.388 Y119.533 E23.48319 ; infill
G1 X110.612 Y119.533 E24.38765 ; infill
G1 X110.612 Y119.989 E24.40706 ; infill
G1 X89.388 Y119.989 E25.31152 ; infill
G1 X89.388 Y120.444 E25.33093 ; infill
G1 X110.612 Y120.444 E26.23539 ; infill
G1 X110.612 Y120.900 E26.25480 ; infill
G1 X89.388 Y120.900 E27.15926 ; infill
G1 X89.388 Y121.356 E27.17867 ; infill
G1 X110.612 Y121.356 E28.08313 ; infill
G1 X110.612 Y121.811 E28.10254 ; infill
G1 X89.388 Y121.811 E29.00699 ; infill
G1 X89.388 Y122.267 E29.02641 ; infill
G1 X110.612 Y122.267 E29.93086 ; infill
G1 X110.612 Y122.722 E29.95028 ; infill
G1 X89.388 Y122.722 E30.85473 ; infill
G1 X89.388 Y123.178 E30.87415 ; infill
G1 X110.612 Y123.178 E31.77860 ; infill
G1 X110.612 Y123.633 E31.79802 ; infill
G1 X89.388 Y123.633 E32.70247 ; infill
G1 X89.388 Y124.089 E32.72189 ; infill
G1 X110.612 Y124.089 E33.62634 ; infill
G1 X110.612 Y124.544 E33.64576 ; infill
G1 X89.388 Y124.544 E34.55021 ; infill
G1 X89.388 Y125.000 E34.56963 ; infill
G1 X110.612 Y125.000 E35.47408 ; infill
G1 X110.612 Y125.456 E35.49349 ; infill
G1 X89.388 Y125.456 E36.39795 ; infill
G1 X89.388 Y125.911 E36.41736 ; infill
G1 X110.612 Y125.911 E37.32182 ; infill
G1 X110.612 Y126.367 E37.34123 ; infill
G1 X89.388 Y126.367 E38.24569 ; infill
G1 X89.388 Y126.822 E38.26510 ; infill
G1 X110.612 Y126.822 E39.16956 ; infill
G1 X110.612 Y127.278 E39.18897 ; infill
G1 X89.388 Y127.278 E40.09343 ; infill
G1 X89.388 Y127.733 E40.11284 ; infill
G1 X110.612 Y127.733 E41.01730 ; infill
G1 X110.612 Y128.189 E41.03671 ; infill
G1 X89.388 Y128.189 E41.94117 ; infill
G1 X89.388 Y128.645 E41.96058 ; infill
G1 X110.612 Y128.645 E42.86504 ; infill
G1 X110.612 Y129.100 E42.88445 ; infill
G1 X89.388 Y129.100 E43.78891 ; infill
G1 X89.388 Y129.556 E43.80832 ; infill
G1 X110.612 Y129.556 E44.71278 ; infill
G1 X110.612 Y130.011 E44.73219 ; infill
G1 X89.388 Y130.011 E45.63664 ; infill
G1 X89.388 Y130.467 E45.65606 ; infill
G1 X110.612 Y130.467 E46.56051 ; infill
G1 X110.612 Y130.922 E46.57993 ; infill
G1 X89.388 Y130.922 E47.48438 ; infill
G1 X89.388 Y131.378 E47.50380 ; infill
G1 X110.612 Y131.378 E48.40825 ; infill
G1 X110.612 Y131.833 E48.42767 ; infill
G1 X89.388 Y131.833 E49.33212 ; infill
G1 X89.388 Y132.289 E49.35154 ; infill
G1 X110.612 Y132.289 E50.25599 ; infill
G1 X110.612 Y132.745 E50.27541 ; infill
G1 X89.388 Y132.745 E51.17986 ; infill
G1 X89.388 Y133.200 E51.19928 ; infill
G1 X110.612 Y133.200 E52.10373 ; infill
G1 X110.612 Y133.656 E52.12314 ; infill
G1 X89.388 Y133.656 E53.02760 ; infill
G1 X89.388 Y134.111 E53.04701 ; infill
G1 X110.612 Y134.111 E53.95147 ; infill
G1 X110.612 Y134.567 E53.97088 ; infill
G1 X89.388 Y134.567 E54.87534 ; infill
G1 X89.388 Y135.022 E54.89475 ; infill
G1 X110.612 Y135.022 E55.79921 ; infill
G1 X110.612 Y135.478 E55.81862 ; infill
G1 X89.388 Y135.478 E56.72308 ; infill
G1 Z0.650 F7800.000 ; move to next layer (2)
G1 X110.950 Y135.950 F7800.000 ; move to first perimeter point
G1 X89.050 Y135.950 E101.39991 F3000.000 ; perimeter
G1 X89.050 Y114.050 E102.18830 ; perimeter
G1 X110.950 Y114.050 E102.97669 ; perimeter
G1 X110.950 Y135.897 E103.76320 ; perimeter
G1 X111.431 Y136.431 F7800.000 ; move to first perimeter point
G1 X88.569 Y136.431 E104.58623 F3000.000 ; perimeter
G1 X88.569 Y113.569 E105.40925 ; perimeter
G1 X111.431 Y113.569 E106.23228 ; perimeter
G1 X111.431 Y136.378 E107.05342 ; perimeter
G1 X111.825 Y136.825 F7800.000 ; move to first perimeter point
G1 X88.175 Y136.825 E107.59691 F1500.000 ; perimeter
G1 X88.175 Y113.175 E108.14040 ; perimeter
G1 X111.825 Y113.175 E108.68389 ; perimeter
G1 X111.825 Y136.773 E109.22617 ; perimeter
G1 X111.522 Y136.650 F7800.000 ; move inwards before travel
G1 X110.685 Y135.541 F7800.000 ; move to first infill point
G1 X89.388 Y114.522 E14.22508 F1200.000 ; infill
G1 X89.388 Y114.978 E14.24450 ; infill
G1 X110.612 Y114.978 E15.14895 ; infill
G1 X110.612 Y115.433 E15.16837 ; infill
G1 X89.388 Y115.433 E16.07282 ; infill
G1 X89.388 Y115.889 E16.09224 ; infill
G1 X110.612 Y115.889 E16.99669 ; infill
G1 X110.612 Y116.344 E17.01611 ; infill
G1 X89.388 Y116.344 E17.92056 ; infill
G1 X89.388 Y116.800 E17.93998 ; infill
G1 X110.612 Y116.800 E18.84443 ; infill
G1 X110.612 Y117.255 E18.86384 ; infill
G1 X89.388 Y117.255 E19.76830 ; infill
G1 X89.388 Y117.711 E19.78771 ; infill
G1 X110.612 Y117.711 E20.69217 ; infill
G1 X110.612 Y118.167 E20.71158 ; infill
G1 X89.388 Y118.167 E21.61604 ; infill
G1 X89.388 Y118.622 E21.63545 ; infill
G1 X110.612 Y118.622 E22.53991 ; infill
G1 X110.612 Y119.078 E22.55932 ; infill
G1 X89.388 Y119.078 E23.46378 ; infill
G1 X89.388 Y119.533 E23.48319 ; infill
G1 X110.612 Y119.533 E24.38765 ; infill
G1 X110.612 Y119.989 E24.40706 ; infill
G1 X89.388 Y119.989 E25.31152 ; infill
G1 X89.388 Y120.444 E25.33093 ; infill
G1 X110.612 Y120.444 E26.23539 ; infill
G1 X110.612 Y120.900 E26.25480 ; infill
G1 X89.388 Y120.900 E27.15926 ; infill
G1 X89.388 Y121.356 E27.17867 ; infill
G1 X110.612 Y121.356 E28.08313 ; infill
G1 X110.612 Y121.811 E28.10254 ; infill
G1 X89.388 Y121.811 E29.00699 ; infill
G1 X89.388 Y122.267 E29.02641 ; infill
G1 X110.612 Y122.267 E29.93086 ; infill
G1 X110.612 Y122.722 E29.95028 ; infill
G1 X89.388 Y122.722 E30.85473 ; infill
G1 X89.388 Y123.178 E30.87415 ; infill
G1 X110.612 Y123.178 E31.77860 ; infill
G1 X110.612 Y123.633 E31.79802 ; infill
G1 X89.388 Y123.633 E32.70247 ; infill
G1 X89.388 Y124.089 E32.72189 ; infill
G1 X110.612 Y124.089 E33.62634 ; infill
G1 X110.612 Y124.544 E33.64576 ; infill
G1 X89.388 Y124.544 E34.55021 ; infill
G1 X89.388 Y125.000 E34.56963 ; infill
G1 X110.612 Y125.000 E35.47408 ; infill
G1 X110.612 Y125.456 E35.49349 ; infill
G1 X89.388 Y125.456 E36.39795 ; infill
G1 X89.388 Y125.911 E36.41736 ; infill
G1 X110.612 Y125.911 E37.32182 ; infill
G1 X110.612 Y126.367 E37.34123 ; infill
G1 X89.388 Y126.367 E38.24569 ; infill
G1 X89.388 Y126.822 E38.26510 ; infill
G1 X110.612 Y126.822 E39.16956 ; infill
G1 X110.612 Y127.278 E39.18897 ; infill
G1 X89.388 Y127.278 E40.09343 ; infill
G1 X89.388 Y127.733 E40.11284 ; infill
G1 X110.612 Y127.733 E41.01730 ; infill
G1 X110.612 Y128.189 E41.03671 ; infill
G1 X89.388 Y128.189 E41.94117 ; infill
G1 X89.388 Y128.645 E41.96058 ; infill
G1 X110.612 Y128.645 E42.86504 ; infill
G1 X110.612 Y129.100 E42.88445 ; infill
G1 X89.388 Y129.100 E43.78891 ; infill
G1 X89.388 Y129.556 E43.80832 ; infill
G1 X110.612 Y129.556 E44.71278 ; infill
G1 X110.612 Y130.011 E44.73219 ; infill
G1 X89.388 Y130.011 E45.63664 ; infill
G1 X89.388 Y130.467 E45.65606 ; infill
G1 X110.612 Y130.467 E46.56051 ; infill
G1 X110.612 Y130.922 E46.57993 ; infill
G1 X89.388 Y130.922 E47.48438 ; infill
G1 X89.388 Y131.378 E47.50380 ; infill
G1 X110.612 Y131.378 E48.40825 ; infill
G1 X110.612 Y131.833 E48.42767 ; infill
G1 X89.388 Y131.833 E49.33212 ; infill
G1 X89.388 Y132.289 E49.35154 ; infill
G1 X110.612 Y132.289 E50.25599 ; infill
G1 X110.612 Y132.745 E50.27541 ; infill
G1 X89.388 Y132.745 E51.17986 ; infill
G1 X89.388 Y133.200 E51.19928 ; infill
G1 X110.612 Y133.200 E52.10373 ; infill
G1 X110.612 Y133.656 E52.12314 ; infill
G1 X89.388 Y133.656 E53.02760 ; infill
G1 X89.388 Y134.111 E53.04701 ; infill
G1 X110.612 Y134.111 E53.95147 ; infill
G1 X110.612 Y134.567 E53.97088 ; infill
G1 X89.388 Y134.567 E54.87534 ; infill
G1 X89.388 Y135.022 E54.89475 ; infill
G1 X110.612 Y135.022 E55.79921 ; infill
G1 X110.612 Y135.478 E55.81862 ; infill
G1 X89.388 Y135.478 E56.72308 ; infill
G1 Z0.850 F7800.000 ; move to next layer (3)
G1 X110.950 Y135.950 F7800.000 ; move to first perimeter point
G1 X89.050 Y135.950 E145.28834 F3000.000 ; perimeter
G1 X89.050 Y114.050 E146.07673 ; perimeter
G1 X110.950 Y114.050 E146.86513 ; perimeter
G1 X110.950 Y135.897 E147.65163 ; perimeter
G1 X111.431 Y136.431 F7800.000 ; move to first perimeter point
G1 X88.569 Y136.431 E148.47466 F3000.000 ; perimeter
G1 X88.569 Y113.569 E149.29769 ; perimeter
G1 X111.431 Y113.569 E150.12072 ; perimeter
G1 X111.431 Y136.378 E150.94186 ; perimeter
G1 X111.825 Y136.825 F7800.000 ; move to first perimeter point
G1 X88.175 Y136.825 E151.48535 F1500.000 ; perimeter
