;FLAVOR:Marlin
;TIME:2301
;Filament used: 1.4589m
;Layer height: 0.1
;Generated with Cura_SteamEngine 3.2.1
M190 S40
M104 S200
M109 S200
M82 ;absolute extrusion mode
G21 ;metric values
G90 ;absolute positioning
M82 ;set extruder to absolute mode
M107 ;start with the fan off
G28 X0 Y0 ;move X/Y to min endstops
G28 Z0 ;move Z to min endstops
G1 Z15.0 F9000 ;move the platform down 15mm
G92 E0 ;zero the extruded length
G1 F200 E3 ;extrude 3mm of feed stock
G92 E0 ;zero the extruded length again
G1 F9000
;Put printing message on LCD screen
M117 Printing...
;LAYER_COUNT:199
;LAYER:0
M107
G0 F3600 X84.623 Y84.349 Z0.3
;TYPE:SKIRT
G1 F1800 X85.222 Y83.834 E0.03941
G1 X85.87 Y83.383 E0.0788
G1 X86.561 Y82.999 E0.11824
G1 X87.286 Y82.687 E0.15762
G1 X88.039 Y82.45 E0.197
G1 X88.813 Y82.291 E0.23642
G1 X89.598 Y82.21 E0.27579
G1 X90 Y82.2 E0.29586
G1 X110 Y82.2 E1.29366
G1 X110.789 Y82.24 E1.33307
G1 X111.569 Y82.359 E1.37244
G1 X112.334 Y82.557 E1.41186
G1 X113.074 Y82.831 E1.45123
G1 X113.783 Y83.179 E1.49063
G1 X114.454 Y83.597 E1.53007
G1 X115.078 Y84.08 E1.56944
G1 X115.651 Y84.623 E1.60883
G1 X116.166 Y85.222 E1.64824
G1 X116.617 Y85.87 E1.68763
G1 X117.001 Y86.561 E1.72706
G1 X117.313 Y87.286 E1.76644
G1 X117.55 Y88.039 E1.80583
G1 X117.709 Y88.813 E1.84525
G1 X117.79 Y89.598 E1.88462
G1 X117.8 Y90 E1.90468
G1 X117.8 Y110 E2.90249
G1 X117.76 Y110.789 E2.9419
G1 X117.641 Y111.569 E2.98126
G1 X117.443 Y112.334 E3.02069
G1 X117.169 Y113.074 E3.06006
G1 X116.821 Y113.783 E3.09946
G1 X116.403 Y114.454 E3.1389
G1 X115.92 Y115.078 E3.17827
G1 X115.377 Y115.651 E3.21765
G1 X114.778 Y116.166 E3.25706
G1 X114.13 Y116.617 E3.29645
G1 X113.439 Y117.001 E3.33589
G1 X112.714 Y117.313 E3.37527
G1 X111.961 Y117.55 E3.41465
G1 X111.187 Y117.709 E3.45407
G1 X110.402 Y117.79 E3.49345
G1 X110 Y117.8 E3.51351
G1 X90 Y117.8 E4.51131
G1 X89.211 Y117.76 E4.55073
G1 X88.431 Y117.641 E4.59009
G1 X87.666 Y117.443 E4.62951
G1 X86.926 Y117.169 E4.66888
G1 X86.217 Y116.821 E4.70829
G1 X85.546 Y116.403 E4.74773
G1 X84.922 Y115.92 E4.78709
G1 X84.349 Y115.377 E4.82648
G1 X83.834 Y114.778 E4.86589
G1 X83.383 Y114.13 E4.90528
G1 X82.999 Y113.439 E4.94472
G1 X82.687 Y112.714 E4.98409
G1 X82.45 Y111.961 E5.02348
G1 X82.291 Y111.187 E5.0629
G1 X82.21 Y110.402 E5.10227
G1 X82.2 Y110 E5.12233
G1 X82.2 Y90 E6.12014
G1 X82.24 Y89.211 E6.15955
G1 X82.359 Y88.431 E6.19892
G1 X82.557 Y87.666 E6.23834
G1 X82.831 Y86.926 E6.27771
G1 X83.179 Y86.217 E6.31711
G1 X83.597 Y85.546 E6.35655
G1 X84.08 Y84.922 E6.39592
G1 X84.623 Y84.349 E6.4353
G0 F3600 X85.016 Y84.53
G1 F1800 X85.611 Y84.042 E6.4737
G1 X86.253 Y83.619 E6.51205
G1 X86.936 Y83.264 E6.55046
G1 X87.651 Y82.983 E6.58878
G1 X88.393 Y82.777 E6.6272
G1 X89.151 Y82.649 E6.66555
G1 X90 Y82.6 E6.70798
G1 X110 Y82.6 E7.70579
G1 X110.768 Y82.64 E7.74415
G1 X111.528 Y82.759 E7.78253
G1 X112.271 Y82.957 E7.82089
G1 X112.99 Y83.231 E7.85928
G1 X113.676 Y83.578 E7.89764
G1 X114.323 Y83.994 E7.93601
G1 X114.923 Y84.475 E7.97438
G1 X115.47 Y85.016 E8.01276
G1 X115.958 Y85.611 E8.05115
G1 X116.381 Y86.253 E8.08951
G1 X116.736 Y86.936 E8.12791
G1 X117.017 Y87.651 E8.16624
G1 X117.223 Y88.393 E8.20466
G1 X117.351 Y89.151 E8.24301
G1 X117.4 Y90 E8.28544
G1 X117.4 Y110 E9.28324
G1 X117.36 Y110.768 E9.32161
G1 X117.241 Y111.528 E9.35999
G1 X117.043 Y112.271 E9.39835
G1 X116.769 Y112.99 E9.43674
G1 X116.422 Y113.676 E9.47509
G1 X116.006 Y114.323 E9.51347
G1 X115.525 Y114.923 E9.55183
G1 X114.984 Y115.47 E9.59021
G1 X114.389 Y115.958 E9.62861
G1 X113.747 Y116.381 E9.66696
G1 X113.064 Y116.736 E9.70537
G1 X112.349 Y117.017 E9.74369
G1 X111.607 Y117.223 E9.78211
G1 X110.849 Y117.351 E9.82046
G1 X110 Y117.4 E9.86289
G1 X90 Y117.4 E10.86069
G1 X89.232 Y117.36 E10.89906
G1 X88.472 Y117.241 E10.93744
G1 X87.729 Y117.043 E10.9758
G1 X87.01 Y116.769 E11.01419
G1 X86.324 Y116.422 E11.05254
G1 X85.677 Y116.006 E11.09092
G1 X85.077 Y115.525 E11.12929
G1 X84.53 Y114.984 E11.16767
G1 X84.042 Y114.389 E11.20606
G1 X83.619 Y113.747 E11.24442
G1 X83.264 Y113.064 E11.28282
G1 X82.983 Y112.349 E11.32115
G1 X82.777 Y111.607 E11.35957
G1 X82.649 Y110.849 E11.39792
G1 X82.6 Y110 E11.44035
G1 X82.6 Y90 E12.43815
G1 X82.64 Y89.232 E12.47652
G1 X82.759 Y88.472 E12.5149
G1 X82.957 Y87.729 E12.55326
G1 X83.231 Y87.01 E12.59165
G1 X83.578 Y86.324 E12.63
G1 X83.994 Y85.677 E12.66837
G1 X84.475 Y85.077 E12.70674
G1 X85.016 Y84.53 E12.74512
G0 F3600 X85.408 Y84.716
G1 F1800 X85.998 Y84.257 E12.78242
G1 X86.634 Y83.862 E12.81977
G1 X87.308 Y83.538 E12.85708
G1 X88.013 Y83.288 E12.8944
G1 X88.741 Y83.114 E12.93174
G1 X89.483 Y83.019 E12.96906
G1 X90 Y83 E12.99487
G1 X110 Y83 E13.99267
G1 X110.747 Y83.04 E14.03
G1 X111.485 Y83.159 E14.06729
G1 X112.207 Y83.357 E14.10464
G1 X112.903 Y83.63 E14.14194
G1 X113.566 Y83.977 E14.17927
G1 X114.189 Y84.392 E14.21662
G1 X114.763 Y84.871 E14.25392
G1 X115.284 Y85.408 E14.29125
G1 X115.743 Y85.998 E14.32854
G1 X116.138 Y86.634 E14.36589
G1 X116.462 Y87.308 E14.4032
G1 X116.712 Y88.013 E14.44052
G1 X116.886 Y88.741 E14.47786
G1 X116.981 Y89.483 E14.51518
G1 X117 Y90 E14.54099
G1 X117 Y110 E15.5388
G1 X116.96 Y110.747 E15.57612
G1 X116.841 Y111.485 E15.61341
G1 X116.643 Y112.207 E15.65077
G1 X116.37 Y112.903 E15.68806
G1 X116.023 Y113.566 E15.7254
G1 X115.608 Y114.189 E15.76274
G1 X115.129 Y114.763 E15.80004
G1 X114.592 Y115.284 E15.83737
G1 X114.002 Y115.743 E15.87466
G1 X113.366 Y116.138 E15.91202
G1 X112.692 Y116.462 E15.94933
G1 X111.987 Y116.712 E15.98664
G1 X111.259 Y116.886 E16.02399
G1 X110.517 Y116.981 E16.06131
G1 X110 Y117 E16.08712
G1 X90 Y117 E17.08492
G1 X89.253 Y116.96 E17.12224
G1 X88.515 Y116.841 E17.15954
G1 X87.793 Y116.643 E17.19689
G1 X87.097 Y116.37 E17.23419
G1 X86.434 Y116.023 E17.27152
G1 X85.811 Y115.608 E17.30887
G1 X85.237 Y115.129 E17.34617
G1 X84.716 Y114.592 E17.3835
G1 X84.257 Y114.002 E17.42079
G1 X83.862 Y113.366 E17.45814
G1 X83.538 Y112.692 E17.49545
G1 X83.288 Y111.987 E17.53277
G1 X83.114 Y111.259 E17.57011
G1 X83.019 Y110.517 E17.60743
G1 X83 Y110 E17.63324
G1 X83 Y90 E18.63105
G1 X83.04 Y89.253 E18.66837
G1 X83.159 Y88.515 E18.70566
G1 X83.357 Y87.793 E18.74301
G1 X83.63 Y87.097 E18.78031
G1 X83.977 Y86.434 E18.81765
G1 X84.392 Y85.811 E18.85499
G1 X84.871 Y85.237 E18.89229
G1 X85.408 Y84.716 E18.92962
G0 F3600 X85.265 Y85.402
G1 F1800 X85.799 Y84.909 E18.96588
G1 X86.384 Y84.479 E19.0021
G1 X87.013 Y84.115 E19.03836
G1 X87.678 Y83.822 E19.07461
G1 X88.371 Y83.604 E19.11086
G1 X89.083 Y83.464 E19.14706
G1 X90 Y83.4 E19.19292
G1 X110 Y83.4 E20.19072
G1 X110.725 Y83.44 E20.22695
G1 X111.442 Y83.559 E20.26321
G1 X112.141 Y83.757 E20.29945
G1 X112.814 Y84.03 E20.33569
G1 X113.453 Y84.375 E20.37192
G1 X114.05 Y84.789 E20.40816
G1 X114.598 Y85.265 E20.44438
G1 X115.091 Y85.799 E20.48063
G1 X115.521 Y86.384 E20.51686
G1 X115.885 Y87.013 E20.55311
G1 X116.178 Y87.678 E20.58937
G1 X116.396 Y88.371 E20.62561
G1 X116.536 Y89.083 E20.66181
G1 X116.6 Y90 E20.70767
G1 X116.6 Y110 E21.70548
G1 X116.56 Y110.725 E21.7417
G1 X116.441 Y111.442 E21.77796
G1 X116.243 Y112.141 E21.81421
G1 X115.97 Y112.814 E21.85044
G1 X115.625 Y113.453 E21.88667
G1 X115.211 Y114.05 E21.92292
G1 X114.735 Y114.598 E21.95913
G1 X114.201 Y115.091 E21.99539
G1 X113.616 Y115.521 E22.03161
G1 X112.987 Y115.885 E22.06787
G1 X112.322 Y116.178 E22.10412
G1 X111.629 Y116.396 E22.14037
G1 X110.917 Y116.536 E22.17657
G1 X110 Y116.6 E22.22243
G1 X90 Y116.6 E23.22024
G1 X89.275 Y116.56 E23.25646
G1 X88.558 Y116.441 E23.29272
G1 X87.859 Y116.243 E23.32897
G1 X87.186 Y115.97 E23.3652
G1 X86.547 Y115.625 E23.40143
G1 X85.95 Y115.211 E23.43767
G1 X85.402 Y114.735 E23.47389
G1 X84.909 Y114.201 E23.51015
G1 X84.479 Y113.616 E23.54637
G1 X84.115 Y112.987 E23.58263
G1 X83.822 Y112.322 E23.61888
G1 X83.604 Y111.629 E23.65512
G1 X83.464 Y110.917 E23.69133
G1 X83.4 Y110 E23.73719
G1 X83.4 Y90 E24.73499
G1 X83.44 Y89.275 E24.77122
G1 X83.559 Y88.558 E24.80748
G1 X83.757 Y87.859 E24.84372
G1 X84.03 Y87.186 E24.87996
G1 X84.375 Y86.547 E24.91619
G1 X84.789 Y85.95 E24.95243
G1 X85.265 Y85.402 E24.98864
G0 F3600 X85.659 Y85.573
G1 F1800 X86.189 Y85.109 E25.02379
G1 X86.768 Y84.709 E25.0589
G1 X87.389 Y84.377 E25.09403
G1 X88.043 Y84.117 E25.12914
G1 X88.723 Y83.933 E25.16429
G1 X89.419 Y83.827 E25.19941
G1 X90 Y83.8 E25.22843
G1 X110 Y83.8 E26.22623
G1 X110.703 Y83.84 E26.26136
G1 X111.397 Y83.959 E26.29649
G1 X112.072 Y84.157 E26.33159
G1 X112.721 Y84.429 E26.36669
G1 X113.335 Y84.774 E26.40183
G1 X113.906 Y85.185 E26.43693
G1 X114.427 Y85.659 E26.47207
G1 X114.891 Y86.189 E26.50721
G1 X115.291 Y86.768 E26.54232
G1 X115.623 Y87.389 E26.57745
G1 X115.883 Y88.043 E26.61257
G1 X116.067 Y88.723 E26.64771
G1 X116.173 Y89.419 E26.68284
G1 X116.2 Y90 E26.71185
G1 X116.2 Y110 E27.70966
G1 X116.16 Y110.703 E27.74479
G1 X116.041 Y111.397 E27.77992
G1 X115.843 Y112.072 E27.81501
G1 X115.571 Y112.721 E27.85012
G1 X115.226 Y113.335 E27.88525
G1 X114.815 Y113.906 E27.92035
G1 X114.341 Y114.427 E27.95549
G1 X113.811 Y114.891 E27.99064
G1 X113.232 Y115.291 E28.02575
G1 X112.611 Y115.623 E28.06088
G1 X111.957 Y115.883 E28.09599
G1 X111.277 Y116.067 E28.13114
G1 X110.581 Y116.173 E28.16626
G1 X110 Y116.2 E28.19528
G1 X90 Y116.2 E29.19308
G1 X89.297 Y116.16 E29.22821
G1 X88.603 Y116.041 E29.26334
G1 X87.928 Y115.843 E29.29844
G1 X87.279 Y115.571 E29.33354
G1 X86.665 Y115.226 E29.36868
G1 X86.094 Y114.815 E29.40378
G1 X85.573 Y114.341 E29.43892
G1 X85.109 Y113.811 E29.47406
G1 X84.709 Y113.232 E29.50917
G1 X84.377 Y112.611 E29.5443
G1 X84.117 Y111.957 E29.57942
G1 X83.933 Y111.277 E29.61456
G1 X83.827 Y110.581 E29.64969
G1 X83.8 Y110 E29.6787
G1 X83.8 Y90 E30.67651
G1 X83.84 Y89.297 E30.71164
G1 X83.959 Y88.603 E30.74677
G1 X84.157 Y87.928 E30.78186
G1 X84.429 Y87.279 E30.81697
G1 X84.774 Y86.665 E30.85211
G1 X85.185 Y86.094 E30.8872
G1 X85.659 Y85.573 E30.92235
G0 F3600 X86.053 Y85.751
G1 F1800 X86.578 Y85.317 E30.95633
G1 X87.15 Y84.948 E30.99029
G1 X87.762 Y84.649 E31.02427
G1 X88.404 Y84.424 E31.05821
G1 X89.069 Y84.275 E31.09221
G1 X90 Y84.2 E31.13881
G1 X110 Y84.2 E32.13661
G1 X110.68 Y84.24 E32.1706
G1 X111.35 Y84.359 E32.20455
G1 X112.002 Y84.556 E32.23853
G1 X112.626 Y84.828 E32.27249
G1 X113.214 Y85.172 E32.30647
G1 X113.758 Y85.582 E32.34046
G1 X114.249 Y86.053 E32.3744
G1 X114.683 Y86.578 E32.40839
G1 X115.052 Y87.15 E32.44235
G1 X115.351 Y87.762 E32.47633
G1 X115.576 Y88.404 E32.51027
G1 X115.725 Y89.069 E32.54427
G1 X115.8 Y90 E32.59087
G1 X115.8 Y110 E33.58867
G1 X115.76 Y110.68 E33.62265
G1 X115.641 Y111.35 E33.6566
G1 X115.444 Y112.002 E33.69058
G1 X115.172 Y112.626 E33.72454
G1 X114.828 Y113.214 E33.75853
G1 X114.418 Y113.758 E33.79252
G1 X113.947 Y114.249 E33.82646
G1 X113.422 Y114.683 E33.86044
G1 X112.85 Y115.052 E33.8944
G1 X112.238 Y115.351 E33.92839
G1 X111.596 Y115.576 E33.96233
G1 X110.931 Y115.725 E33.99633
G1 X110 Y115.8 E34.04292
G1 X90 Y115.8 E35.04073
G1 X89.32 Y115.76 E35.07471
G1 X88.65 Y115.641 E35.10866
G1 X87.998 Y115.444 E35.14264
G1 X87.374 Y115.172 E35.1766
G1 X86.786 Y114.828 E35.21059
G1 X86.242 Y114.418 E35.24458
G1 X85.751 Y113.947 E35.27852
G1 X85.317 Y113.422 E35.3125
G1 X84.948 Y112.85 E35.34646
G1 X84.649 Y112.238 E35.38045
G1 X84.424 Y111.596 E35.41438
G1 X84.275 Y110.931 E35.44838
G1 X84.2 Y110 E35.49498
G1 X84.2 Y90 E36.49279
G1 X84.24 Y89.32 E36.52677
G1 X84.359 Y88.65 E36.56072
G1 X84.556 Y87.998 E36.5947
G1 X84.828 Y87.374 E36.62866
G1 X85.172 Y86.786 E36.66265
G1 X85.582 Y86.242 E36.69663
G1 X86.053 Y85.751 E36.73058
G0 F3600 X86.445 Y85.935
G1 F1800 X86.965 Y85.534 E36.76334
G1 X87.529 Y85.198 E36.79609
G1 X88.131 Y84.934 E36.82889
G1 X88.76 Y84.744 E36.86167
G1 X89.407 Y84.633 E36.89442
G1 X90 Y84.6 E36.92405
G1 X110 Y84.6 E37.92185
G1 X110.656 Y84.64 E37.95464
G1 X111.302 Y84.759 E37.98741
G1 X111.929 Y84.956 E38.0202
G1 X112.527 Y85.228 E38.05298
G1 X113.088 Y85.57 E38.08576
G1 X113.603 Y85.978 E38.11854
G1 X114.065 Y86.445 E38.15131
G1 X114.466 Y86.965 E38.18407
G1 X114.802 Y87.529 E38.21682
G1 X115.066 Y88.131 E38.24962
G1 X115.256 Y88.76 E38.2824
G1 X115.367 Y89.407 E38.31515
G1 X115.4 Y90 E38.34478
G1 X115.4 Y110 E39.34259
G1 X115.36 Y110.656 E39.37537
G1 X115.241 Y111.302 E39.40815
G1 X115.044 Y111.929 E39.44093
G1 X114.772 Y112.527 E39.47371
G1 X114.43 Y113.088 E39.50649
G1 X114.022 Y113.603 E39.53927
G1 X113.555 Y114.065 E39.57204
G1 X113.035 Y114.466 E39.6048
G1 X112.471 Y114.802 E39.63756
G1 X111.869 Y115.066 E39.67035
G1 X111.24 Y115.256 E39.70313
G1 X110.593 Y115.367 E39.73588
G1 X110 Y115.4 E39.76551
G1 X90 Y115.4 E40.76332
G1 X89.344 Y115.36 E40.79611
G1 X88.698 Y115.241 E40.82888
G1 X88.071 Y115.044 E40.86167
G1 X87.473 Y114.772 E40.89444
G1 X86.912 Y114.43 E40.92722
G1 X86.397 Y114.022 E40.96
G1 X85.935 Y113.555 E40.99277
G1 X85.534 Y113.035 E41.02553
G1 X85.198 Y112.471 E41.05829
G1 X84.934 Y111.869 E41.09108
G1 X84.744 Y111.24 E41.12386
G1 X84.633 Y110.593 E41.15661
G1 X84.6 Y110 E41.18625
G1 X84.6 Y90 E42.18405
G1 X84.64 Y89.344 E42.21684
G1 X84.759 Y88.698 E42.24961
G1 X84.956 Y88.071 E42.2824
G1 X85.228 Y87.473 E42.31517
G1 X85.57 Y86.912 E42.34795
G1 X85.978 Y86.397 E42.38073
G1 X86.445 Y85.935 E42.41351
G0 F3600 X86.373 Y86.559
G1 F1800 X86.836 Y86.129 E42.44503
G1 X87.35 Y85.76 E42.4766
G1 X87.906 Y85.46 E42.50812
G1 X88.495 Y85.232 E42.53963
G1 X89.109 Y85.08 E42.57118
G1 X90 Y85 E42.61582
G1 X110 Y85 E43.61362
G1 X110.631 Y85.04 E43.64516
G1 X111.252 Y85.159 E43.67671
G1 X111.852 Y85.356 E43.70822
G1 X112.424 Y85.627 E43.73979
G1 X112.956 Y85.967 E43.77129
G1 X113.441 Y86.373 E43.80285
G1 X113.871 Y86.836 E43.83437
G1 X114.24 Y87.35 E43.86594
G1 X114.54 Y87.906 E43.89746
G1 X114.768 Y88.495 E43.92897
G1 X114.92 Y89.109 E43.96053
G1 X115 Y90 E44.00516
G1 X115 Y110 E45.00296
G1 X114.96 Y110.631 E45.03451
G1 X114.841 Y111.252 E45.06605
G1 X114.644 Y111.852 E45.09756
G1 X114.373 Y112.424 E45.12914
G1 X114.033 Y112.956 E45.16063
G1 X113.627 Y113.441 E45.19219
G1 X113.164 Y113.871 E45.22371
G1 X112.65 Y114.24 E45.25528
G1 X112.094 Y114.54 E45.2868
G1 X111.505 Y114.768 E45.31831
G1 X110.891 Y114.92 E45.34987
G1 X110 Y115 E45.3945
G1 X90 Y115 E46.3923
G1 X89.369 Y114.96 E46.42385
G1 X88.748 Y114.841 E46.45539
G1 X88.148 Y114.644 E46.4869
G1 X87.576 Y114.373 E46.51848
G1 X87.044 Y114.033 E46.54998
G1 X86.559 Y113.627 E46.58153
G1 X86.129 Y113.164 E46.61306
G1 X85.76 Y112.65 E46.64462
G1 X85.46 Y112.094 E46.67614
G1 X85.232 Y111.505 E46.70765
G1 X85.08 Y110.891 E46.73921
G1 X85 Y110 E46.78384
G1 X85 Y90 E47.78165
G1 X85.04 Y89.369 E47.81319
G1 X85.159 Y88.748 E47.84474
G1 X85.356 Y88.148 E47.87624
G1 X85.627 Y87.576 E47.90782
G1 X85.967 Y87.044 E47.93932
G1 X86.373 Y86.559 E47.97087
G0 F3600 X86.767 Y86.728
G1 F1800 X87.225 Y86.331 E48.00111
G1 X87.732 Y85.998 E48.03138
G1 X88.278 Y85.734 E48.06163
G1 X88.854 Y85.545 E48.09188
G1 X89.45 Y85.433 E48.12213
G1 X90 Y85.4 E48.14962
G1 X110 Y85.4 E49.14742
G1 X110.605 Y85.44 E49.17767
G1 X111.199 Y85.559 E49.2079
G1 X111.773 Y85.755 E49.23816
G1 X112.316 Y86.026 E49.26844
G1 X112.819 Y86.365 E49.2987
G1 X113.272 Y86.767 E49.32891
G1 X113.669 Y87.225 E49.35915
G1 X114.002 Y87.732 E49.38941
G1 X114.266 Y88.278 E49.41967
G1 X114.455 Y88.854 E49.44992
G1 X114.567 Y89.45 E49.48017
G1 X114.6 Y90 E49.50766
G1 X114.6 Y110 E50.50546
G1 X114.56 Y110.605 E50.53571
G1 X114.441 Y111.199 E50.56594
G1 X114.245 Y111.773 E50.5962
G1 X113.974 Y112.316 E50.62647
G1 X113.635 Y112.819 E50.65674
G1 X113.233 Y113.272 E50.68695
G1 X112.775 Y113.669 E50.71719
G1 X112.268 Y114.002 E50.74745
G1 X111.722 Y114.266 E50.77771
